img/woman.svg

<svg width="55" height="52" viewBox="0 0 55 52" fill="none" xmlns="http://www.w3.org/2000/svg">
<g clip-path="url(#clip0_1_3)">
<path d="M43.769 4.67005H43.759C43.6445 4.67018 43.5311 4.69291 43.4254 4.73694C43.3197 4.78097 43.2238 4.84543 43.143 4.92663C43.0623 5.00783 42.9984 5.10417 42.955 5.21012C42.9116 5.31607 42.8895 5.42955 42.89 5.54405C42.89 6.02705 43.286 6.41805 43.769 6.41805C44.0008 6.41805 44.2231 6.32597 44.387 6.16206C44.5509 5.99815 44.643 5.77585 44.643 5.54405C44.643 5.31225 44.5509 5.08994 44.387 4.92604C44.2231 4.76213 44.0008 4.67005 43.769 4.67005ZM31.7 49.3601C31.7 49.9061 31.256 50.35 30.71 50.35H27.854V46.975C27.854 46.387 28.117 45.84 28.576 45.473L31.573 43.076C31.655 43.291 31.7 43.525 31.7 43.766V49.3601ZM26.098 46.975V50.35H7.34V46.975C7.34139 46.4243 7.21825 45.8803 6.9798 45.3839C6.74135 44.8874 6.39375 44.4513 5.963 44.1081L3.185 41.885L8.642 39.6101C11.522 43.1721 14.432 44.1521 15.844 44.4211V47.3791C15.844 47.4938 15.8666 47.6075 15.9105 47.7135C15.9545 47.8196 16.0188 47.9159 16.1 47.9971C16.1811 48.0782 16.2775 48.1426 16.3835 48.1865C16.4896 48.2304 16.6032 48.253 16.718 48.253C16.8328 48.253 16.9464 48.2304 17.0525 48.1865C17.1585 48.1426 17.2549 48.0782 17.336 47.9971C17.4172 47.9159 17.4815 47.8196 17.5255 47.7135C17.5694 47.6075 17.592 47.4938 17.592 47.3791V44.42C19.005 44.151 21.915 43.1711 24.794 39.6091L30.252 41.884L27.474 44.107C27.0432 44.4503 26.6957 44.8864 26.4572 45.3829C26.2187 45.8793 26.0956 46.4233 26.097 46.974L26.098 46.975ZM2.736 50.35C2.47378 50.3495 2.22249 50.245 2.03726 50.0594C1.85203 49.8738 1.748 49.6223 1.748 49.3601V43.766C1.748 43.525 1.793 43.292 1.875 43.076L4.865 45.473C5.322 45.84 5.585 46.387 5.585 46.975V50.35H2.736ZM11.251 38.524C11.7507 38.3169 12.1777 37.9661 12.4779 37.5161C12.778 37.066 12.9378 36.537 12.937 35.996V35.202L14.489 36.065C15.189 36.453 15.956 36.648 16.724 36.648C17.492 36.648 18.26 36.454 18.96 36.065L20.512 35.202V35.996C20.512 37.106 21.174 38.097 22.197 38.524L23.114 38.906C21.474 40.81 19.89 41.756 18.817 42.218C17.629 42.729 16.807 42.771 16.724 42.7751C16.641 42.7721 15.819 42.729 14.632 42.218C13.559 41.756 11.974 40.81 10.334 38.906L11.251 38.524ZM10.48 31.8391C10.0729 31.6131 9.72723 31.2909 9.47326 30.9006C9.21929 30.5103 9.0647 30.0638 9.023 29.6L8.358 22.2801C10.2028 22.2617 12.0414 22.0641 13.848 21.6901C18.641 20.6971 22.551 18.53 25.155 15.423C25.298 15.2448 25.3655 15.0177 25.343 14.7903C25.3206 14.5629 25.21 14.3533 25.0349 14.2065C24.8598 14.0597 24.6342 13.9872 24.4064 14.0047C24.1785 14.0222 23.9666 14.1282 23.816 14.3C18.132 21.08 7.6 20.5261 7.455 20.517C7.32933 20.5092 7.20344 20.5286 7.08596 20.5739C6.96849 20.6192 6.86219 20.6894 6.77434 20.7796C6.6865 20.8699 6.61919 20.978 6.57702 21.0966C6.53484 21.2153 6.51881 21.3416 6.53 21.467L6.612 22.38H6.467C5.856 22.38 5.29 22.5821 4.834 22.9221C4.64189 22.0268 4.54502 21.1137 4.545 20.198C4.545 17.051 5.779 14.081 8.018 11.834C10.304 9.54105 13.394 8.27805 16.719 8.27805C20.044 8.27805 23.134 9.54105 25.42 11.834C27.66 14.081 28.893 17.051 28.893 20.198C28.893 21.2591 28.763 22.1861 28.604 22.9221C28.1326 22.5696 27.5596 22.3795 26.971 22.38H26.826L26.909 21.4681C26.9206 21.3405 26.9041 21.212 26.8605 21.0915C26.817 20.9711 26.7475 20.8617 26.657 20.771L24.793 18.906C24.6291 18.7421 24.4068 18.6501 24.175 18.6501C23.9432 18.6501 23.7209 18.7421 23.557 18.906C23.3931 19.07 23.301 19.2923 23.301 19.524C23.301 19.7558 23.3931 19.9781 23.557 20.142L25.132 21.7181L24.51 28.564C23.796 29.195 21.533 30.771 16.72 30.771C16.4882 30.771 16.2659 30.8631 16.102 31.027C15.9381 31.1909 15.846 31.4132 15.846 31.6451C15.846 31.8769 15.9381 32.0992 16.102 32.2631C16.2659 32.427 16.4882 32.5191 16.72 32.5191C20.064 32.5191 22.353 31.819 23.838 31.0791C23.6003 31.39 23.3011 31.6487 22.959 31.8391L18.105 34.537C17.6816 34.7742 17.2043 34.8988 16.719 34.8988C16.2337 34.8988 15.7564 34.7742 15.333 34.537L10.48 31.8391ZM6.468 27.9641C6.20578 27.9641 5.95427 27.86 5.76867 27.6748C5.58307 27.4896 5.47853 27.2383 5.478 26.976V25.116C5.47853 24.8538 5.58307 24.6025 5.76867 24.4173C5.95427 24.2321 6.20578 24.128 6.468 24.128H6.772L7.122 27.9641H6.468ZM16.72 4.54805C19.007 4.54805 20.932 5.73305 21.464 7.32805C19.9391 6.79602 18.3351 6.52621 16.72 6.53005C15.071 6.53005 13.473 6.80305 11.977 7.32905C12.508 5.73305 14.433 4.54905 16.72 4.54905V4.54805ZM27.972 26.976C27.9715 27.2383 27.8669 27.4896 27.6813 27.6748C27.4957 27.86 27.2442 27.9641 26.982 27.9641H26.328L26.678 24.128H26.981C27.2432 24.128 27.4947 24.2321 27.6803 24.4173C27.8659 24.6025 27.9705 24.8538 27.971 25.116L27.972 26.976ZM31.19 40.376L22.87 36.91C22.6894 36.8351 22.5352 36.7082 22.4268 36.5455C22.3184 36.3828 22.2607 36.1916 22.261 35.996V34.23L23.817 33.3661C24.473 33.002 25.03 32.483 25.4394 31.8543C25.8489 31.2256 26.0983 30.5063 26.166 29.7591L26.169 29.7211H26.981C27.7074 29.7205 28.4038 29.4318 28.9175 28.9183C29.4312 28.4048 29.7202 27.7084 29.721 26.982V25.3C29.965 24.707 30.652 22.812 30.652 20.198C30.652 16.585 29.237 13.177 26.668 10.6C25.696 9.62459 24.5829 8.80073 23.366 8.15605C23.324 5.19605 20.362 2.80005 16.726 2.80005C13.089 2.80005 10.126 5.19705 10.084 8.15605C8.86708 8.80065 7.75398 9.62452 6.782 10.6C4.212 13.177 2.797 16.585 2.797 20.198C2.797 22.812 3.485 24.708 3.73 25.3V26.983C3.73079 27.7091 4.01948 28.4051 4.53276 28.9186C5.04603 29.432 5.74199 29.721 6.468 29.722H7.281L7.284 29.76C7.3517 30.5073 7.60114 31.2266 8.01057 31.8553C8.42 32.484 8.97699 33.003 9.633 33.3671L11.188 34.231V35.996C11.188 36.397 10.949 36.7561 10.578 36.91L2.26 40.377C1.58999 40.6546 1.01749 41.1248 0.615135 41.7282C0.212775 42.3316 -0.00132148 43.0408 3.61973e-07 43.766V49.3601C0.000794441 50.0862 0.289622 50.7824 0.803112 51.2959C1.3166 51.8094 2.01282 52.0983 2.739 52.099H30.709C31.4355 52.0985 32.1322 51.8097 32.6459 51.2959C33.1596 50.7822 33.4485 50.0856 33.449 49.3591V43.766C33.4504 43.0407 33.2363 42.3313 32.834 41.7277C32.4316 41.1242 31.8591 40.6538 31.189 40.376H31.19Z" fill="#BB9D60"/>
<path d="M15.65 24.737C15.232 23.87 14.225 23.31 13.083 23.31C11.942 23.31 10.935 23.87 10.517 24.737C10.4164 24.9459 10.4028 25.1861 10.4793 25.405C10.5558 25.6239 10.7161 25.8034 10.925 25.904C11.1339 26.0046 11.3741 26.0182 11.593 25.9417C11.8119 25.8652 11.9914 25.7049 12.092 25.496C12.194 25.284 12.576 25.058 13.083 25.058C13.591 25.058 13.973 25.284 14.075 25.496C14.1757 25.7049 14.3551 25.8652 14.574 25.9417C14.7929 26.0182 15.0331 26.0046 15.242 25.904C15.4509 25.8034 15.6112 25.6239 15.6877 25.405C15.7642 25.1861 15.7507 24.9459 15.65 24.737ZM22.93 24.737C22.512 23.87 21.505 23.31 20.363 23.31C19.222 23.31 18.215 23.87 17.797 24.737C17.7472 24.8404 17.7182 24.9526 17.7117 25.0673C17.7052 25.1819 17.7214 25.2966 17.7593 25.405C17.7972 25.5134 17.8561 25.6132 17.9325 25.6988C18.009 25.7844 18.1016 25.8542 18.205 25.904C18.3084 25.9538 18.4206 25.9828 18.5353 25.9893C18.6499 25.9958 18.7646 25.9796 18.873 25.9417C18.9814 25.9038 19.0812 25.8449 19.1668 25.7685C19.2524 25.692 19.3222 25.5994 19.372 25.496C19.474 25.284 19.856 25.058 20.364 25.058C20.871 25.058 21.253 25.284 21.355 25.496C21.4048 25.5994 21.4746 25.692 21.5602 25.7685C21.6458 25.8449 21.7456 25.9038 21.854 25.9417C21.9624 25.9796 22.0771 25.9958 22.1918 25.9893C22.3064 25.9828 22.4186 25.9538 22.522 25.904C22.6254 25.8542 22.718 25.7844 22.7945 25.6988C22.8709 25.6132 22.9298 25.5134 22.9677 25.405C23.0056 25.2966 23.0218 25.1819 23.0153 25.0673C23.0088 24.9526 22.9798 24.8404 22.93 24.737ZM43.76 20.511C42.8059 20.5116 41.8573 20.3666 40.947 20.081C40.8165 20.0401 40.6782 20.0303 40.5433 20.0525C40.4083 20.0748 40.2805 20.1284 40.17 20.209C39.094 20.995 37.913 21.502 36.898 21.826C37.352 21.228 37.837 20.508 38.291 19.678C38.3912 19.4951 38.4227 19.2823 38.3798 19.0782C38.3369 18.8741 38.2224 18.6921 38.057 18.565C35.719 16.77 34.378 14.059 34.378 11.13C34.378 5.957 38.587 1.749 43.76 1.749C48.933 1.749 53.142 5.957 53.142 11.13C53.142 16.303 48.933 20.511 43.76 20.511ZM43.76 0C37.623 0 32.63 4.993 32.63 11.13C32.63 14.35 33.994 17.346 36.397 19.463C35.191 21.437 33.882 22.575 33.869 22.586C33.7286 22.7059 33.6298 22.8671 33.5867 23.0465C33.5436 23.226 33.5584 23.4145 33.629 23.585C33.6996 23.7556 33.8224 23.8994 33.9798 23.9958C34.1371 24.0923 34.321 24.1365 34.505 24.122C34.649 24.111 37.932 23.83 40.843 21.872C41.793 22.13 42.771 22.26 43.76 22.26C49.897 22.26 54.89 17.267 54.89 11.13C54.89 4.993 49.897 0 43.76 0Z" fill="#BB9D60"/>
<path d="M44.699 15.859H44.641V10.149H44.699C44.9309 10.149 45.1534 10.0569 45.3174 9.89289C45.4814 9.72889 45.5735 9.50646 45.5735 9.27452C45.5735 9.04259 45.4814 8.82016 45.3174 8.65616C45.1534 8.49216 44.9309 8.40002 44.699 8.40002H42.834C42.7192 8.40002 42.6056 8.42263 42.4995 8.46655C42.3935 8.51048 42.2971 8.57486 42.216 8.65601C42.1348 8.73717 42.0705 8.83352 42.0265 8.93956C41.9826 9.0456 41.96 9.15925 41.96 9.27402C41.96 9.3888 41.9826 9.50245 42.0265 9.60849C42.0705 9.71453 42.1348 9.81088 42.216 9.89204C42.2971 9.97319 42.3935 10.0376 42.4995 10.0815C42.6056 10.1254 42.7192 10.148 42.834 10.148H42.892V15.858H42.834C42.6019 15.858 42.3794 15.9502 42.2153 16.1143C42.0512 16.2784 41.959 16.501 41.959 16.733C41.959 16.9651 42.0512 17.1876 42.2153 17.3517C42.3794 17.5158 42.6019 17.608 42.834 17.608H44.7C44.9321 17.608 45.1546 17.5158 45.3187 17.3517C45.4828 17.1876 45.575 16.9651 45.575 16.733C45.575 16.501 45.4828 16.2784 45.3187 16.1143C45.1546 15.9502 44.9321 15.858 44.7 15.858L44.699 15.859Z" fill="#BB9D60"/>
</g>
<defs>
<clipPath id="clip0_1_3">
<rect width="55" height="52" fill="white"/>
</clipPath>
</defs>
</svg>

<svg width="55" height="52" fill="none" xmlns="http://www.w3.org/2000/svg"><g clip-path="url(#clip0_1_3)" fill="#BB9D60"><path d="M43.769 4.67h-.01a.87.87 0 00-.869.874.878.878 0 001.497.618.874.874 0 00-.618-1.492zM31.7 49.36a.99.99 0 01-.99.99h-2.856v-3.375c0-.588.263-1.135.722-1.502l2.997-2.397c.082.215.127.449.127.69v5.594zm-5.602-2.385v3.375H7.34v-3.375a3.654 3.654 0 00-1.377-2.867l-2.778-2.223 5.457-2.275c2.88 3.562 5.79 4.542 7.202 4.811v2.958a.874.874 0 001.748 0V44.42c1.413-.269 4.323-1.249 7.202-4.81l5.458 2.274-2.778 2.223a3.655 3.655 0 00-1.377 2.867l.001.001zM2.736 50.35a.99.99 0 01-.988-.99v-5.594c0-.241.045-.474.127-.69l2.99 2.397c.457.367.72.914.72 1.502v3.375H2.736zm8.515-11.826a2.733 2.733 0 001.686-2.528v-.794l1.552.863c.7.388 1.467.583 2.235.583.768 0 1.536-.194 2.236-.583l1.552-.863v.794c0 1.11.662 2.101 1.685 2.528l.917.382c-1.64 1.904-3.224 2.85-4.297 3.312-1.188.511-2.01.553-2.093.557-.083-.003-.905-.046-2.092-.557-1.073-.462-2.658-1.408-4.298-3.312l.917-.382zm-.771-6.685A2.854 2.854 0 019.023 29.6l-.665-7.32a28.483 28.483 0 005.49-.59c4.793-.993 8.703-3.16 11.307-6.267a.873.873 0 00-1.339-1.123C18.132 21.08 7.6 20.526 7.455 20.517a.875.875 0 00-.925.95l.082.913h-.145c-.611 0-1.177.202-1.633.542a12.985 12.985 0 01-.289-2.724c0-3.147 1.234-6.117 3.473-8.364 2.286-2.293 5.376-3.556 8.701-3.556s6.415 1.263 8.701 3.556c2.24 2.247 3.473 5.217 3.473 8.364 0 1.061-.13 1.988-.289 2.724a2.723 2.723 0 00-1.633-.542h-.145l.083-.912a.874.874 0 00-.252-.697l-1.864-1.865a.874.874 0 00-1.236 1.236l1.575 1.576-.622 6.846c-.714.631-2.977 2.207-7.79 2.207a.874.874 0 000 1.748c3.344 0 5.633-.7 7.118-1.44a2.85 2.85 0 01-.879.76l-4.854 2.698a2.836 2.836 0 01-2.772 0l-4.853-2.698zm-4.012-3.875a.99.99 0 01-.99-.988v-1.86a.99.99 0 01.99-.988h.304l.35 3.836h-.654zM16.72 4.548c2.287 0 4.212 1.185 4.744 2.78a14.298 14.298 0 00-4.744-.798c-1.649 0-3.247.273-4.743.799.531-1.596 2.456-2.78 4.743-2.78v-.001zm11.252 22.428a.99.99 0 01-.99.988h-.654l.35-3.836h.303a.99.99 0 01.99.988l.001 1.86zm3.218 13.4l-8.32-3.466a.987.987 0 01-.609-.914V34.23l1.556-.864a4.6 4.6 0 002.349-3.607l.003-.038h.812a2.742 2.742 0 002.74-2.739V25.3c.244-.593.931-2.488.931-5.102 0-3.613-1.415-7.021-3.984-9.598a13.746 13.746 0 00-3.302-2.444c-.042-2.96-3.004-5.356-6.64-5.356-3.637 0-6.6 2.397-6.642 5.356A13.742 13.742 0 006.782 10.6c-2.57 2.577-3.985 5.985-3.985 9.598 0 2.614.688 4.51.933 5.102v1.683a2.742 2.742 0 002.738 2.739h.813l.003.038a4.6 4.6 0 002.349 3.607l1.555.864v1.765c0 .401-.239.76-.61.914L2.26 40.377A3.661 3.661 0 000 43.766v5.594a2.742 2.742 0 002.739 2.74h27.97a2.742 2.742 0 002.74-2.74v-5.593a3.663 3.663 0 00-2.26-3.39h.001z"/><path d="M15.65 24.737c-.418-.867-1.425-1.427-2.567-1.427-1.141 0-2.148.56-2.566 1.427a.874.874 0 001.575.759c.102-.212.484-.438.991-.438.508 0 .89.226.992.438a.874.874 0 101.575-.759zm7.28 0c-.418-.867-1.425-1.427-2.567-1.427-1.141 0-2.148.56-2.566 1.427a.875.875 0 001.575.759c.102-.212.484-.438.992-.438.507 0 .889.226.991.438a.875.875 0 001.575-.759zm20.83-4.226a9.377 9.377 0 01-2.813-.43.875.875 0 00-.777.128c-1.076.786-2.257 1.293-3.272 1.617.454-.598.939-1.318 1.393-2.148a.874.874 0 00-.234-1.113c-2.338-1.795-3.679-4.506-3.679-7.435 0-5.173 4.209-9.381 9.382-9.381s9.382 4.208 9.382 9.381-4.209 9.381-9.382 9.381zM43.76 0c-6.137 0-11.13 4.993-11.13 11.13 0 3.22 1.364 6.216 3.767 8.333-1.206 1.974-2.515 3.112-2.528 3.123a.874.874 0 00.636 1.536c.144-.011 3.427-.292 6.338-2.25.95.258 1.928.388 2.917.388 6.137 0 11.13-4.993 11.13-11.13C54.89 4.993 49.897 0 43.76 0z"/><path d="M44.699 15.859h-.058v-5.71h.058a.875.875 0 100-1.749h-1.865a.874.874 0 000 1.748h.058v5.71h-.058a.875.875 0 100 1.75H44.7a.875.875 0 100-1.75l-.001.001z"/></g><defs><clipPath id="clip0_1_3"><path fill="#fff" d="M0 0h55v52H0z"/></clipPath></defs></svg>
